X: 29210
T: New Custom House, The
R: reel
M: 4/4
K: Dmixolydian
|:AD~D2 FGAB|(3cBA GE CDEG|AD~D2 FGAB|cBce dcAG|
AD~D2 (3EFG AB|(3cBA GE CDEG|AD~D2 FGAB|1 cAGE D2dc:|2 cAGE EDD2||
|:Ad~d2 Ad~d2|edcd efge|Ad~d2 Ad~d2|faeg fedB|
Ad~d2 Ad~d2|eccB cege|afge fd^cd|e2ag egdB:|

